X: 1
T: Morpeth Rant 1
O: Trad
Z: 1997 by John Chambers <jc:trillian.mit.edu>
N: There are two common versions of this tune, with different second parts.
N: Barnes
M: C|
L: 1/8
K: D
   A2 | "D"d2AG FDFA | "G"BGBd "A7"cAce | "D"f2fd "G"gfed |1 "A7"c2e2 e2 :|2 "A7"A2d2 "D"d2 |]
|: A2 | "D"dfaf dfaf | "G"gfef g2ef |1 "A7"gfed cdeg | "D"fefg f2 :|2 "A7"gfed caag | "D"f2d2 d2 :|
